build/img/gorgeous.svg

<svg width="176" height="30" viewBox="0 0 176 30" fill="none" xmlns="http://www.w3.org/2000/svg">
<path d="M23.4 15.0001L23.2 15.2001C21.8 16.7001 20.2 17.4001 18.7 17.4001L21.5 12.5001C23.3 9.4001 21.6 6.4001 18.8 6.4001C16.5 6.4001 14.7 7.3001 13 10.3001L11.5 12.9001L10.3 15.0001L10.1 15.2001C7.90002 17.7001 5.80002 19.7001 4.50002 19.7001C3.80002 19.7001 3.50001 19.2001 4.20001 18.1001L10.6 6.9001H13L13.9 5.5001H11.4L14.2 0.600098H11.2L8.40001 5.5001H5.70001L4.80002 6.9001H7.50002L1.50002 17.3001C0.200017 19.5001 1.10002 21.6001 3.50002 21.6001C5.20002 21.6001 7.20002 20.3001 9.00002 18.5001C9.00002 22.3001 14.3 23.1001 17.5 19.0001H18.2C20 19.0001 22.8 17.9001 24.3 16.1001C24.3 15.6001 23.8 15.2001 23.4 15.0001ZM17 15.2001H16.9C15.9 15.2001 15.1 16.0001 15.1 17.0001C15.1 17.4001 15.2 17.7001 15.4 18.0001V18.1001C14 20.5001 10.6 20.1001 12.3 16.9001L14.6 13.0001L16 10.6001C18.1 7.0001 21 8.4001 19.2 11.5001L17 15.2001Z" fill="#766458"/>
<path d="M64.9001 15.0001L64.7001 15.2001C62.5001 17.7001 59.8001 19.7001 57.7001 19.7001C55.9001 19.7001 54.8001 18.5001 56.1001 16.1001L56.4001 15.6001C58.3001 16.4001 62.0001 16.0001 64.2001 12.1001L64.6001 11.4001C66.2001 8.6001 64.7001 6.6001 62.2001 6.6001C59.8001 6.6001 57.9001 7.9001 56.6001 10.1001L53.7001 15.1001L53.5001 15.3001C51.3001 17.8001 49.2001 19.8001 47.9001 19.8001C47.2001 19.8001 46.9001 19.3001 47.6001 18.2001L51.9001 10.6001C53.2001 8.3001 52.0001 6.7001 50.3001 6.7001C49.0001 6.7001 47.6001 7.4001 46.1001 9.0001L50.9001 0.7001H47.9001L39.6001 15.0001L39.4001 15.2001C37.2001 17.7001 35.1001 19.7001 33.8001 19.7001C33.1001 19.7001 32.8001 19.2001 33.5001 18.1001L39.9001 6.9001H42.3001L43.2001 5.5001H40.7001L43.5001 0.600098H40.5001L37.7001 5.5001H35.0001L34.1001 6.9001H36.8001L30.8001 17.3001C29.5001 19.5001 30.4001 21.6001 32.8001 21.6001C34.0001 21.6001 35.3001 21.0001 36.6001 20.0001L35.8001 21.3001H38.8001L43.3001 13.4001C47.9001 7.6001 49.9001 8.4001 48.7001 10.6001L44.8001 17.4001C43.5001 19.6001 44.4001 21.7001 46.8001 21.7001C48.6001 21.7001 50.6001 20.3001 52.4001 18.5001C52.5001 20.4001 54.1001 21.7001 56.5001 21.7001C59.9001 21.7001 63.3001 19.1001 65.7001 16.2001C65.8001 15.6001 65.3001 15.2001 64.9001 15.0001ZM59.2001 10.8001C60.9001 7.8001 64.0001 8.3001 62.2001 11.4001L61.8001 12.1001C60.4001 14.5001 58.4001 14.5001 57.3001 14.1001L59.2001 10.8001Z" fill="#766458"/>
<path d="M174 15.0001L173.8 15.2001C172.7 16.5001 171.4 17.6001 170.2 18.5001C171.2 15.6001 170.9 11.3001 172.8 7.40009L170.6 6.20009C169.4 7.90009 166.7 11.8001 163.9 15.0001L163.7 15.2001C161.5 17.7001 159.4 19.7001 158.1 19.7001C157.4 19.7001 157.1 19.2001 157.8 18.1001L164.2 6.90009H161.2L155.9 16.2001C153.6 18.3001 151.9 19.4001 151.3 19.2001C150.6 18.9001 151.3 17.8001 151.7 17.1001L157.5 6.90009H154.5L149.8 15.0001L149.6 15.2001C148.2 16.7001 146.6 17.4001 145.1 17.4001L147.9 12.5001C149.7 9.40009 148 6.40009 145.2 6.40009C142.9 6.40009 141.1 7.30009 139.4 10.3001L137.9 12.9001L136.7 15.0001L136.5 15.2001C134.3 17.7001 131.6 19.7001 129.5 19.7001C127.7 19.7001 126.6 18.5001 127.9 16.1001L128.2 15.6001C130.1 16.4001 133.8 16.0001 136 12.1001L136.4 11.4001C138 8.60009 136.5 6.60009 134 6.60009C131.6 6.60009 129.7 7.90009 128.4 10.1001L125.5 15.1001L125.3 15.3001C122.8 18.2001 120.7 20.0001 118.3 21.0001L125 9.50009H123.2C123.2 8.30009 121.9 6.60009 120.1 6.60009C118.5 6.60009 116.2 7.90009 115 10.1001L112.1 15.1001L111.9 15.3001C109.7 17.8001 107.6 19.8001 106.3 19.8001C105.6 19.8001 105.3 19.3001 106 18.2001L109 13.0001C110 11.2001 109.5 10.1001 108.6 8.90009L106.9 6.90009C106.5 6.40009 106.5 5.70009 107.1 5.20009L105.5 3.50009C103.8 5.00009 103.7 6.70009 104.7 8.10009L105 8.40009C103.7 10.3001 101.9 12.8001 99.9 15.1001L99.7 15.3001C98.3 16.8001 96.7 17.5001 95.2 17.5001L98 12.6001C99.8 9.50009 98.1 6.50009 95.3 6.50009C93 6.50009 91.2 7.40009 89.5 10.4001L88 13.0001L86.8 15.1001L86.6 15.3001C84.1 18.2001 82 20.0001 79.6 21.0001L86.3 9.50009H84.5C84.5 8.30009 83.2 6.60009 81.4 6.60009C79.8 6.60009 77.5 7.90009 76.3 10.1001L72.1 17.4001C70.8 19.6001 71.7 21.7001 74.1 21.7001C74.9 21.7001 75.9 21.3001 77 20.7001L76.2 22.1001C72.2 23.3001 69.6 25.0001 69.6 27.2001C69.6 30.1001 74 30.7001 76.2 27.0001L78.5 23.1001C80.9 22.4001 83.2 20.9001 85.7 18.6001C85.7 22.4001 91 23.2001 94.2 19.1001H94.9C96.7 19.1001 99.5 18.0001 101 16.2001C102.4 14.5001 103.6 13.0001 106 9.80009L106.4 10.3001C106.8 10.8001 106.9 11.4001 106.6 12.0001L103.4 17.5001C102.1 19.7001 103 21.8001 105.4 21.8001C106.9 21.8001 108.6 20.8001 110.2 19.4001C110.2 20.8001 111.1 21.8001 112.8 21.8001C113.6 21.8001 114.6 21.4001 115.7 20.8001L115 22.0001C111 23.2001 108.4 24.9001 108.4 27.1001C108.4 30.0001 112.8 30.6001 115 26.9001L117.3 23.0001C119.7 22.2001 122.1 20.8001 124.6 18.4001C124.7 20.3001 126.2 21.6001 128.7 21.6001C131.1 21.6001 133.6 20.2001 135.6 18.4001C135.5 22.3001 140.9 23.1001 144.1 19.0001H144.8C145.7 19.0001 147 18.7001 148.1 18.1001C147.3 20.2001 148 21.6001 149.7 21.6001C151.3 21.6001 153.2 20.1001 154.6 18.7001C154.3 20.3001 155.3 21.6001 157.2 21.6001C159.7 21.6001 162.5 19.0001 165 16.1001C166.7 14.1001 168.2 12.0001 169.3 10.6001C168.1 13.7001 168.8 19.3001 165.9 19.3001C164.9 19.3001 164.5 18.2001 164.5 18.2001L162.6 19.2001C162.6 19.2001 163.1 21.6001 165.9 21.6001C166.2 21.6001 166.4 21.6001 166.7 21.5001H166.8C169.9 21.1001 172.9 18.7001 175.1 16.1001C175 15.6001 174.5 15.1001 174 15.0001ZM131.1 10.8001C132.8 7.80009 135.9 8.30009 134.1 11.4001L133.7 12.1001C132.3 14.5001 130.3 14.5001 129.2 14.1001L131.1 10.8001ZM73.9 26.4001C73.3 27.5001 72.3 27.4001 72.3 26.5001C72.3 25.7001 73 24.8001 75.3 23.9001L73.9 26.4001ZM75.3 19.7001C74.6 19.7001 74.3 19.2001 75 18.1001L79.2 10.8001C80.8 8.00009 84 8.70009 82.5 11.4001L80.2 15.4001C78.4 18.3001 76.5 19.7001 75.3 19.7001ZM93.7 15.2001H93.6C92.6 15.2001 91.8 16.0001 91.8 17.0001C91.8 17.4001 91.9 17.7001 92.1 18.0001V18.1001C90.7 20.5001 87.3 20.1001 89 16.9001L91.3 13.0001L92.7 10.6001C94.8 7.00009 97.7 8.40009 95.9 11.5001L93.7 15.2001ZM112.5 26.4001C111.9 27.5001 110.9 27.4001 110.9 26.5001C110.9 25.7001 111.6 24.8001 113.9 23.9001L112.5 26.4001ZM113.9 19.7001C113.2 19.7001 112.9 19.2001 113.6 18.1001L117.8 10.8001C119.4 8.00009 122.6 8.70009 121.1 11.4001L118.8 15.4001C117 18.3001 115.1 19.7001 113.9 19.7001ZM143.4 15.2001H143.3C142.3 15.2001 141.5 16.0001 141.5 17.0001C141.5 17.4001 141.6 17.7001 141.8 18.0001V18.1001C140.4 20.5001 137 20.1001 138.7 16.9001L141 13.0001L142.4 10.6001C144.5 7.00009 147.4 8.40009 145.6 11.5001L143.4 15.2001Z" fill="#766458"/>
</svg>

<svg width="176" height="30" fill="none" xmlns="http://www.w3.org/2000/svg"><path d="M23.4 15l-.2.2c-1.4 1.5-3 2.2-4.5 2.2l2.8-4.9c1.8-3.1.1-6.1-2.7-6.1-2.3 0-4.1.9-5.8 3.9l-1.5 2.6-1.2 2.1-.2.2c-2.2 2.5-4.3 4.5-5.6 4.5-.7 0-1-.5-.3-1.6l6.4-11.2H13l.9-1.4h-2.5L14.2.6h-3L8.4 5.5H5.7l-.9 1.4h2.7l-6 10.4c-1.3 2.2-.4 4.3 2 4.3 1.7 0 3.7-1.3 5.5-3.1 0 3.8 5.3 4.6 8.5.5h.7c1.8 0 4.6-1.1 6.1-2.9 0-.5-.5-.9-.9-1.1zm-6.4.2h-.1c-1 0-1.8.8-1.8 1.8 0 .4.1.7.3 1v.1c-1.4 2.4-4.8 2-3.1-1.2l2.3-3.9 1.4-2.4c2.1-3.6 5-2.2 3.2.9L17 15.2zm47.9-.2l-.2.2c-2.2 2.5-4.9 4.5-7 4.5-1.8 0-2.9-1.2-1.6-3.6l.3-.5c1.9.8 5.6.4 7.8-3.5l.4-.7c1.6-2.8.1-4.8-2.4-4.8-2.4 0-4.3 1.3-5.6 3.5l-2.9 5-.2.2c-2.2 2.5-4.3 4.5-5.6 4.5-.7 0-1-.5-.3-1.6l4.3-7.6c1.3-2.3.1-3.9-1.6-3.9-1.3 0-2.7.7-4.2 2.3L50.9.7h-3L39.6 15l-.2.2c-2.2 2.5-4.3 4.5-5.6 4.5-.7 0-1-.5-.3-1.6l6.4-11.2h2.4l.9-1.4h-2.5L43.5.6h-3l-2.8 4.9H35l-.9 1.4h2.7l-6 10.4c-1.3 2.2-.4 4.3 2 4.3 1.2 0 2.5-.6 3.8-1.6l-.8 1.3h3l4.5-7.9c4.6-5.8 6.6-5 5.4-2.8l-3.9 6.8c-1.3 2.2-.4 4.3 2 4.3 1.8 0 3.8-1.4 5.6-3.2.1 1.9 1.7 3.2 4.1 3.2 3.4 0 6.8-2.6 9.2-5.5.1-.6-.4-1-.8-1.2zm-5.7-4.2c1.7-3 4.8-2.5 3 .6l-.4.7c-1.4 2.4-3.4 2.4-4.5 2l1.9-3.3zM174 15l-.2.2c-1.1 1.3-2.4 2.4-3.6 3.3 1-2.9.7-7.2 2.6-11.1l-2.2-1.2c-1.2 1.7-3.9 5.6-6.7 8.8l-.2.2c-2.2 2.5-4.3 4.5-5.6 4.5-.7 0-1-.5-.3-1.6l6.4-11.2h-3l-5.3 9.3c-2.3 2.1-4 3.2-4.6 3-.7-.3 0-1.4.4-2.1l5.8-10.2h-3l-4.7 8.1-.2.2c-1.4 1.5-3 2.2-4.5 2.2l2.8-4.9c1.8-3.1.1-6.1-2.7-6.1-2.3 0-4.1.9-5.8 3.9l-1.5 2.6-1.2 2.1-.2.2c-2.2 2.5-4.9 4.5-7 4.5-1.8 0-2.9-1.2-1.6-3.6l.3-.5c1.9.8 5.6.4 7.8-3.5l.4-.7c1.6-2.8.1-4.8-2.4-4.8-2.4 0-4.3 1.3-5.6 3.5l-2.9 5-.2.2c-2.5 2.9-4.6 4.7-7 5.7L125 9.5h-1.8c0-1.2-1.3-2.9-3.1-2.9-1.6 0-3.9 1.3-5.1 3.5l-2.9 5-.2.2c-2.2 2.5-4.3 4.5-5.6 4.5-.7 0-1-.5-.3-1.6l3-5.2c1-1.8.5-2.9-.4-4.1l-1.7-2c-.4-.5-.4-1.2.2-1.7l-1.6-1.7c-1.7 1.5-1.8 3.2-.8 4.6l.3.3c-1.3 1.9-3.1 4.4-5.1 6.7l-.2.2c-1.4 1.5-3 2.2-4.5 2.2l2.8-4.9c1.8-3.1.1-6.1-2.7-6.1-2.3 0-4.1.9-5.8 3.9L88 13l-1.2 2.1-.2.2c-2.5 2.9-4.6 4.7-7 5.7l6.7-11.5h-1.8c0-1.2-1.3-2.9-3.1-2.9-1.6 0-3.9 1.3-5.1 3.5l-4.2 7.3c-1.3 2.2-.4 4.3 2 4.3.8 0 1.8-.4 2.9-1l-.8 1.4c-4 1.2-6.6 2.9-6.6 5.1 0 2.9 4.4 3.5 6.6-.2l2.3-3.9c2.4-.7 4.7-2.2 7.2-4.5 0 3.8 5.3 4.6 8.5.5h.7c1.8 0 4.6-1.1 6.1-2.9 1.4-1.7 2.6-3.2 5-6.4l.4.5c.4.5.5 1.1.2 1.7l-3.2 5.5c-1.3 2.2-.4 4.3 2 4.3 1.5 0 3.2-1 4.8-2.4 0 1.4.9 2.4 2.6 2.4.8 0 1.8-.4 2.9-1L115 22c-4 1.2-6.6 2.9-6.6 5.1 0 2.9 4.4 3.5 6.6-.2l2.3-3.9c2.4-.8 4.8-2.2 7.3-4.6.1 1.9 1.6 3.2 4.1 3.2 2.4 0 4.9-1.4 6.9-3.2-.1 3.9 5.3 4.7 8.5.6h.7c.9 0 2.2-.3 3.3-.9-.8 2.1-.1 3.5 1.6 3.5 1.6 0 3.5-1.5 4.9-2.9-.3 1.6.7 2.9 2.6 2.9 2.5 0 5.3-2.6 7.8-5.5 1.7-2 3.2-4.1 4.3-5.5-1.2 3.1-.5 8.7-3.4 8.7-1 0-1.4-1.1-1.4-1.1l-1.9 1s.5 2.4 3.3 2.4c.3 0 .5 0 .8-.1h.1c3.1-.4 6.1-2.8 8.3-5.4-.1-.5-.6-1-1.1-1.1zm-42.9-4.2c1.7-3 4.8-2.5 3 .6l-.4.7c-1.4 2.4-3.4 2.4-4.5 2l1.9-3.3zM73.9 26.4c-.6 1.1-1.6 1-1.6.1 0-.8.7-1.7 3-2.6l-1.4 2.5zm1.4-6.7c-.7 0-1-.5-.3-1.6l4.2-7.3c1.6-2.8 4.8-2.1 3.3.6l-2.3 4c-1.8 2.9-3.7 4.3-4.9 4.3zm18.4-4.5h-.1c-1 0-1.8.8-1.8 1.8 0 .4.1.7.3 1v.1c-1.4 2.4-4.8 2-3.1-1.2l2.3-3.9 1.4-2.4c2.1-3.6 5-2.2 3.2.9l-2.2 3.7zm18.8 11.2c-.6 1.1-1.6 1-1.6.1 0-.8.7-1.7 3-2.6l-1.4 2.5zm1.4-6.7c-.7 0-1-.5-.3-1.6l4.2-7.3c1.6-2.8 4.8-2.1 3.3.6l-2.3 4c-1.8 2.9-3.7 4.3-4.9 4.3zm29.5-4.5h-.1c-1 0-1.8.8-1.8 1.8 0 .4.1.7.3 1v.1c-1.4 2.4-4.8 2-3.1-1.2L141 13l1.4-2.4c2.1-3.6 5-2.2 3.2.9l-2.2 3.7z" fill="#766458"/></svg>
